src/icons/outline/navigation/chevron-down.svg

<svg width="24" height="24" viewBox="0 0 24 24" fill="none" xmlns="http://www.w3.org/2000/svg">
<g clip-path="url(#clip0_1_2429)">
<path d="M10.8715 17.5178C11.0208 17.672 11.1992 17.7905 11.3844 17.8755L11.3953 17.8802C11.5836 17.9559 11.7942 18 11.9989 18C12.1944 18 12.4112 17.9683 12.6134 17.8755C12.7985 17.7905 12.977 17.672 13.1263 17.5178L22.7356 7.58858C22.9166 7.4015 23 7.16482 23 6.93236C23 6.6999 22.9166 6.46321 22.7356 6.27614C22.3792 5.90795 21.7873 5.90795 21.431 6.27614L11.9989 16.0222L2.56679 6.27614C2.21046 5.90795 1.61853 5.90795 1.2622 6.27614C0.912599 6.63738 0.912599 7.22733 1.2622 7.58858L10.8715 17.5178Z" fill="#1D1B20"/>
</g>
<defs>
<clipPath id="clip0_1_2429">
<rect width="24" height="24" fill="white"/>
</clipPath>
</defs>
</svg>

<svg xmlns="http://www.w3.org/2000/svg" width="24" height="24" fill="none" viewBox="0 0 24 24"><g clip-path="url(#a)"><path fill="currentColor" d="M10.872 17.518a1.7 1.7 0 0 0 .512.357l.011.005c.189.076.4.12.604.12.195 0 .412-.032.614-.125.186-.084.364-.203.513-.357l9.61-9.93A.94.94 0 0 0 23 6.933a.94.94 0 0 0-.264-.656.91.91 0 0 0-1.305 0l-9.432 9.746-9.432-9.746a.91.91 0 0 0-1.305 0 .95.95 0 0 0 0 1.313z"/></g><defs><clipPath id="a"><path fill="currentColor" d="M0 0h24v24H0z"/></clipPath></defs></svg>
